Newaita-dark/.DP/32/weather-overcast.svg

<svg xmlns="http://www.w3.org/2000/svg" xmlns:xlink="http://www.w3.org/1999/xlink" width="32px" height="32px" viewBox="0 0 32 32" version="1.1">
<defs>
<linearGradient id="linear0" gradientUnits="userSpaceOnUse" x1="254" y1="233.5" x2="254" y2="254.667007" gradientTransform="matrix(0.0625,0,0,0.0625,0,13.108)">
<stop offset="0" style="stop-color:rgb(0%,0%,0%);stop-opacity:0.275;"/>
<stop offset="1" style="stop-color:rgb(0%,0%,0%);stop-opacity:0;"/>
</linearGradient>
<radialGradient id="radial0" gradientUnits="userSpaceOnUse" cx="450.908997" cy="189.578995" fx="450.908997" fy="189.578995" r="21.167" gradientTransform="matrix(0,-0.07814,-0.14064,0,49.153999,63.264)">
<stop offset="0" style="stop-color:rgb(0%,0%,0%);stop-opacity:0.314;"/>
<stop offset="0.222" style="stop-color:rgb(0%,0%,0%);stop-opacity:0.275;"/>
<stop offset="1" style="stop-color:rgb(0%,0%,0%);stop-opacity:0;"/>
</radialGradient>
<radialGradient id="radial1" gradientUnits="userSpaceOnUse" cx="450.908997" cy="189.578995" fx="450.908997" fy="189.578995" r="21.167" gradientTransform="matrix(0,0.07814,0.14064,0,-19.716,-7.86)">
<stop offset="0" style="stop-color:rgb(0%,0%,0%);stop-opacity:0.314;"/>
<stop offset="0.222" style="stop-color:rgb(0%,0%,0%);stop-opacity:0.275;"/>
<stop offset="1" style="stop-color:rgb(0%,0%,0%);stop-opacity:0;"/>
</radialGradient>
<radialGradient id="radial2" gradientUnits="userSpaceOnUse" cx="450.908997" cy="189.578995" fx="450.908997" fy="189.578995" r="21.167" gradientTransform="matrix(0,-0.07814,0.14064,0,-19.716,63.264)">
<stop offset="0" style="stop-color:rgb(0%,0%,0%);stop-opacity:0.314;"/>
<stop offset="0.222" style="stop-color:rgb(0%,0%,0%);stop-opacity:0.275;"/>
<stop offset="1" style="stop-color:rgb(0%,0%,0%);stop-opacity:0;"/>
</radialGradient>
<radialGradient id="radial3" gradientUnits="userSpaceOnUse" cx="450.908997" cy="189.578995" fx="450.908997" fy="189.578995" r="21.167" gradientTransform="matrix(0,0.07814,-0.14064,0,49.153999,-7.86)">
<stop offset="0" style="stop-color:rgb(0%,0%,0%);stop-opacity:0.314;"/>
<stop offset="0.222" style="stop-color:rgb(0%,0%,0%);stop-opacity:0.275;"/>
<stop offset="1" style="stop-color:rgb(0%,0%,0%);stop-opacity:0;"/>
</radialGradient>
<linearGradient id="linear1" gradientUnits="userSpaceOnUse" x1="211.667007" y1="-20.5" x2="211.667007" y2="-168.667007" gradientTransform="matrix(0.0625,0,0,0.0625,-0.156,13.396)">
<stop offset="0" style="stop-color:rgb(56.470591%,64.313728%,68.235296%);stop-opacity:1;"/>
<stop offset="1" style="stop-color:rgb(69.01961%,74.509805%,77.254903%);stop-opacity:1;"/>
</linearGradient>
<linearGradient id="linear2" gradientUnits="userSpaceOnUse" x1="960" y1="1695.118042" x2="960" y2="815.117981" gradientTransform="matrix(0.016538,0.000254604,-0.000254604,0.016538,0,0)">
<stop offset="0" style="stop-color:rgb(56.470591%,64.313728%,68.235296%);stop-opacity:1;"/>
<stop offset="1" style="stop-color:rgb(69.01961%,74.509805%,77.254903%);stop-opacity:1;"/>
</linearGradient>
</defs>
<g id="surface1">
<path style=" stroke:none;fill-rule:nonzero;fill:url(#linear0);" d="M 6.617188 27.703125 L 22.820312 27.703125 L 22.820312 29.023438 L 6.617188 29.023438 Z M 6.617188 27.703125 "/>
<path style=" stroke:none;fill-rule:nonzero;fill:url(#radial0);" d="M 22.820312 27.703125 L 25.46875 27.703125 L 25.46875 26.382812 L 22.820312 26.382812 Z M 22.820312 27.703125 "/>
<path style=" stroke:none;fill-rule:nonzero;fill:url(#radial1);" d="M 6.617188 27.703125 L 3.96875 27.703125 L 3.96875 29.023438 L 6.617188 29.023438 Z M 6.617188 27.703125 "/>
<path style=" stroke:none;fill-rule:nonzero;fill:url(#radial2);" d="M 6.617188 27.703125 L 3.96875 27.703125 L 3.96875 26.382812 L 6.617188 26.382812 Z M 6.617188 27.703125 "/>
<path style=" stroke:none;fill-rule:nonzero;fill:url(#radial3);" d="M 22.820312 27.703125 L 25.46875 27.703125 L 25.46875 29.023438 L 22.820312 29.023438 Z M 22.820312 27.703125 "/>
<path style=" stroke:none;fill-rule:nonzero;fill:url(#linear1);" d="M 17.398438 2.851562 C 15.796875 2.851562 14.390625 3.65625 13.5625 4.882812 C 12.828125 4.421875 11.976562 4.171875 11.109375 4.179688 C 9.0625 4.179688 7.359375 5.484375 6.921875 7.242188 C 6.109375 6.710938 5.070312 6.671875 4.21875 7.140625 C 3.367188 7.601562 2.835938 8.5 2.84375 9.46875 C 2.84375 10.9375 4.023438 12.117188 5.484375 12.117188 L 17.398438 12.117188 C 18.625 12.117188 19.804688 11.632812 20.671875 10.765625 C 21.546875 9.890625 22.03125 8.710938 22.023438 7.484375 C 22.03125 6.257812 21.546875 5.078125 20.671875 4.210938 C 19.804688 3.335938 18.625 2.851562 17.398438 2.851562 Z M 7.828125 10.710938 C 7.851562 10.742188 7.875 10.765625 7.898438 10.789062 L 7.78125 10.789062 C 7.796875 10.765625 7.8125 10.734375 7.828125 10.710938 Z M 7.828125 10.710938 "/>
<path style=" stroke:none;fill-rule:nonzero;fill:url(#linear2);" d="M 21.828125 13.476562 C 19.023438 13.46875 16.460938 15.085938 15.257812 17.625 C 14.8125 17.507812 14.351562 17.453125 13.890625 17.453125 C 11.695312 17.445312 9.726562 18.804688 8.945312 20.851562 C 7.742188 19.96875 6.140625 19.84375 4.8125 20.523438 C 3.484375 21.203125 2.648438 22.570312 2.648438 24.0625 C 2.648438 26.265625 4.414062 28.03125 6.617188 28.03125 C 6.78125 28.03125 6.9375 28.023438 7.09375 28.007812 C 7.15625 28.023438 7.21875 28.03125 7.273438 28.03125 L 21.828125 28.03125 C 23.757812 28.039062 25.617188 27.273438 26.984375 25.90625 C 28.34375 24.539062 29.109375 22.6875 29.109375 20.757812 C 29.109375 18.828125 28.34375 16.976562 26.984375 15.609375 C 25.617188 14.242188 23.765625 13.476562 21.828125 13.476562 Z M 21.828125 13.476562 "/>
<path style=" stroke:none;fill-rule:nonzero;fill:rgb(100%,100%,100%);fill-opacity:0.392;" d="M 21.828125 13.476562 C 19.023438 13.46875 16.460938 15.085938 15.257812 17.625 C 14.8125 17.507812 14.351562 17.453125 13.890625 17.453125 C 11.695312 17.445312 9.726562 18.804688 8.945312 20.851562 C 7.742188 19.96875 6.140625 19.84375 4.8125 20.523438 C 3.484375 21.203125 2.648438 22.570312 2.648438 24.0625 L 2.648438 24.226562 C 2.734375 22.101562 4.492188 20.421875 6.617188 20.429688 C 7.484375 20.429688 8.289062 20.703125 8.945312 21.179688 C 9.726562 19.125 11.695312 17.773438 13.890625 17.78125 C 14.351562 17.78125 14.8125 17.84375 15.257812 17.953125 C 16.460938 15.421875 19.023438 13.804688 21.828125 13.8125 C 25.789062 13.804688 29.023438 16.96875 29.101562 20.921875 C 29.109375 20.867188 29.109375 20.8125 29.109375 20.757812 C 29.117188 18.828125 28.351562 16.976562 26.984375 15.609375 C 25.617188 14.242188 23.765625 13.476562 21.828125 13.476562 Z M 21.828125 13.476562 "/>
<path style=" stroke:none;fill-rule:nonzero;fill:rgb(0%,0%,0%);fill-opacity:0.235;" d="M 29.101562 20.609375 C 29.03125 24.570312 25.789062 27.742188 21.828125 27.734375 L 7.273438 27.734375 C 7.210938 27.734375 7.15625 27.71875 7.09375 27.703125 C 6.9375 27.71875 6.78125 27.734375 6.617188 27.734375 C 4.484375 27.734375 2.726562 26.046875 2.648438 23.914062 L 2.648438 24.0625 C 2.648438 26.265625 4.414062 28.03125 6.617188 28.03125 C 6.78125 28.03125 6.9375 28.023438 7.09375 28.007812 C 7.15625 28.023438 7.210938 28.03125 7.273438 28.03125 L 21.828125 28.03125 C 23.757812 28.039062 25.609375 27.273438 26.976562 25.90625 C 28.34375 24.539062 29.109375 22.6875 29.109375 20.757812 C 29.109375 20.703125 29.109375 20.65625 29.101562 20.609375 Z M 29.101562 20.609375 "/>
<path style="fill:none;stroke-width:0.0937735;stroke-linecap:round;stroke-linejoin:miter;stroke:rgb(12.941177%,12.941177%,12.941177%);stroke-opacity:1;stroke-miterlimit:4;" d="M 10.914062 6.738281 C 9.511719 6.738281 8.230469 7.542969 7.628906 8.8125 C 7.40625 8.753906 7.175781 8.726562 6.945312 8.726562 C 5.847656 8.722656 4.863281 9.402344 4.472656 10.425781 C 3.871094 9.984375 3.070312 9.921875 2.40625 10.261719 C 1.742188 10.601562 1.324219 11.285156 1.324219 12.03125 C 1.324219 13.132812 2.207031 14.015625 3.308594 14.015625 C 3.390625 14.015625 3.46875 14.011719 3.546875 14.003906 C 3.578125 14.011719 3.609375 14.015625 3.636719 14.015625 L 10.914062 14.015625 C 11.878906 14.019531 12.808594 13.636719 13.492188 12.953125 C 14.171875 12.269531 14.554688 11.34375 14.554688 10.378906 C 14.554688 9.414062 14.171875 8.488281 13.492188 7.804688 C 12.808594 7.121094 11.882812 6.738281 10.914062 6.738281 Z M 10.914062 6.738281 " transform="matrix(2,0,0,2,0,0)"/>
<path style=" stroke:none;fill-rule:nonzero;fill:rgb(100%,100%,100%);fill-opacity:0.392;" d="M 17.554688 2.851562 C 15.953125 2.851562 14.546875 3.65625 13.71875 4.882812 C 12.984375 4.421875 12.132812 4.171875 11.265625 4.179688 C 9.21875 4.179688 7.515625 5.484375 7.078125 7.242188 C 6.265625 6.710938 5.226562 6.671875 4.375 7.140625 C 3.523438 7.601562 2.992188 8.5 3 9.46875 L 3 9.632812 C 3.09375 8.242188 4.25 7.15625 5.640625 7.15625 C 6.171875 7.15625 6.664062 7.304688 7.078125 7.570312 C 7.515625 5.8125 9.21875 4.507812 11.265625 4.507812 C 12.179688 4.507812 13.023438 4.765625 13.71875 5.210938 C 14.578125 3.9375 16.023438 3.179688 17.554688 3.1875 C 20.0625 3.1875 22.09375 5.164062 22.179688 7.648438 L 22.179688 7.484375 C 22.1875 6.257812 21.695312 5.078125 20.828125 4.210938 C 19.960938 3.335938 18.78125 2.851562 17.554688 2.851562 Z M 7.984375 11.046875 C 7.96875 11.070312 7.953125 11.101562 7.9375 11.125 L 8.054688 11.125 C 8.03125 11.09375 8.007812 11.070312 7.984375 11.046875 Z M 7.984375 11.046875 "/>
<path style=" stroke:none;fill-rule:nonzero;fill:rgb(0%,0%,0%);fill-opacity:0.235;" d="M 22.023438 7.34375 C 21.953125 9.84375 19.898438 11.835938 17.398438 11.828125 L 5.484375 11.828125 C 4.078125 11.828125 2.921875 10.734375 2.84375 9.328125 L 2.84375 9.46875 C 2.84375 10.9375 4.023438 12.117188 5.484375 12.117188 L 17.398438 12.117188 C 18.625 12.117188 19.804688 11.632812 20.671875 10.765625 C 21.546875 9.890625 22.03125 8.710938 22.023438 7.484375 Z M 7.828125 10.421875 C 7.8125 10.445312 7.796875 10.476562 7.78125 10.5 L 7.898438 10.5 C 7.875 10.476562 7.851562 10.453125 7.828125 10.421875 Z M 7.828125 10.421875 "/>
<path style="fill:none;stroke-width:0.09375;stroke-linecap:square;stroke-linejoin:round;stroke:rgb(12.941177%,12.941177%,12.941177%);stroke-opacity:1;stroke-miterlimit:4;" d="M 8.699219 1.425781 C 7.898438 1.425781 7.195312 1.828125 6.78125 2.441406 C 6.414062 2.210938 5.988281 2.085938 5.554688 2.089844 C 4.53125 2.089844 3.679688 2.742188 3.460938 3.621094 C 3.054688 3.355469 2.535156 3.335938 2.109375 3.570312 C 1.683594 3.800781 1.417969 4.25 1.421875 4.734375 C 1.421875 5.46875 2.011719 6.058594 2.742188 6.058594 L 8.699219 6.058594 C 9.3125 6.058594 9.902344 5.816406 10.335938 5.382812 C 10.773438 4.945312 11.015625 4.355469 11.011719 3.742188 C 11.015625 3.128906 10.773438 2.539062 10.335938 2.105469 C 9.902344 1.667969 9.3125 1.425781 8.699219 1.425781 Z M 3.914062 5.355469 C 3.925781 5.371094 3.9375 5.382812 3.949219 5.394531 L 3.890625 5.394531 C 3.898438 5.382812 3.90625 5.367188 3.914062 5.355469 Z M 3.914062 5.355469 " transform="matrix(2,0,0,2,0,0)"/>
</g>
</svg>

<svg xmlns="http://www.w3.org/2000/svg" width="32pt" height="32pt" viewBox="0 0 32 32"><defs><linearGradient id="a" gradientUnits="userSpaceOnUse" x1="254" y1="233.5" x2="254" y2="254.667" gradientTransform="matrix(.0625 0 0 .0625 0 13.108)"><stop offset="0" stop-opacity=".275"/><stop offset="1" stop-opacity="0"/></linearGradient><radialGradient id="b" gradientUnits="userSpaceOnUse" cx="450.909" cy="189.579" fx="450.909" fy="189.579" r="21.167" gradientTransform="matrix(0 -.07813 -.14064 0 49.154 63.265)"><stop offset="0" stop-opacity=".314"/><stop offset=".222" stop-opacity=".275"/><stop offset="1" stop-opacity="0"/></radialGradient><radialGradient id="c" gradientUnits="userSpaceOnUse" cx="450.909" cy="189.579" fx="450.909" fy="189.579" r="21.167" gradientTransform="matrix(0 .07813 .14064 0 -19.716 -7.858)"><stop offset="0" stop-opacity=".314"/><stop offset=".222" stop-opacity=".275"/><stop offset="1" stop-opacity="0"/></radialGradient><radialGradient id="d" gradientUnits="userSpaceOnUse" cx="450.909" cy="189.579" fx="450.909" fy="189.579" r="21.167" gradientTransform="matrix(0 -.07813 .14064 0 -19.716 63.265)"><stop offset="0" stop-opacity=".314"/><stop offset=".222" stop-opacity=".275"/><stop offset="1" stop-opacity="0"/></radialGradient><radialGradient id="e" gradientUnits="userSpaceOnUse" cx="450.909" cy="189.579" fx="450.909" fy="189.579" r="21.167" gradientTransform="matrix(0 .07813 -.14064 0 49.154 -7.858)"><stop offset="0" stop-opacity=".314"/><stop offset=".222" stop-opacity=".275"/><stop offset="1" stop-opacity="0"/></radialGradient><linearGradient id="f" gradientUnits="userSpaceOnUse" x1="211.667" y1="-20.5" x2="211.667" y2="-168.667" gradientTransform="matrix(.0625 0 0 .0625 -.156 13.397)"><stop offset="0" stop-color="#90a4ae"/><stop offset="1" stop-color="#b0bec5"/></linearGradient><linearGradient id="g" gradientUnits="userSpaceOnUse" x1="960" y1="1695.118" x2="960" y2="815.118" gradientTransform="rotate(.891) scale(.01654)"><stop offset="0" stop-color="#90a4ae"/><stop offset="1" stop-color="#b0bec5"/></linearGradient></defs><path d="M6.613 27.703h16.211v1.324H6.614zm0 0" fill="url(#a)"/><path d="M22.824 27.703h2.645V26.38h-2.645zm0 0" fill="url(#b)"/><path d="M6.613 27.703H3.97v1.324h2.644zm0 0" fill="url(#c)"/><path d="M6.613 27.703H3.97V26.38h2.644zm0 0" fill="url(#d)"/><path d="M22.824 27.703h2.645v1.324h-2.645zm0 0" fill="url(#e)"/><path d="M17.395 2.855c-1.598 0-3 .801-3.832 2.024a4.567 4.567 0 0 0-2.454-.703c-2.043 0-3.746 1.304-4.187 3.066a2.645 2.645 0 0 0-1.434-.418A2.642 2.642 0 0 0 2.84 9.47a2.646 2.646 0 0 0 2.648 2.648h11.907a4.623 4.623 0 0 0 4.632-4.633 4.62 4.62 0 0 0-4.632-4.629zm-9.57 7.856c.027.027.05.055.077.082h-.12a.827.827 0 0 0 .042-.082zm0 0" fill="url(#f)"/><path d="M21.832 13.48a7.269 7.269 0 0 0-6.578 4.145 5.388 5.388 0 0 0-1.363-.176 5.284 5.284 0 0 0-4.946 3.399 3.96 3.96 0 0 0-2.332-.754 3.965 3.965 0 0 0-3.968 3.972 3.962 3.962 0 0 0 4.453 3.938.56.56 0 0 0 .18.031h14.554a7.261 7.261 0 0 0 7.273-7.277 7.259 7.259 0 0 0-7.273-7.278zm0 0" fill="url(#g)"/><path d="M21.832 13.48a7.269 7.269 0 0 0-6.578 4.145 5.388 5.388 0 0 0-1.363-.176 5.284 5.284 0 0 0-4.946 3.399 3.96 3.96 0 0 0-2.332-.754 3.965 3.965 0 0 0-3.968 3.972c0 .055.003.11.003.164a3.962 3.962 0 0 1 3.965-3.804c.875 0 1.68.281 2.332.754a5.284 5.284 0 0 1 4.946-3.399c.472 0 .93.059 1.363.176a7.262 7.262 0 0 1 6.578-4.145 7.26 7.26 0 0 1 7.273 7.11v-.164a7.259 7.259 0 0 0-7.273-7.278zm0 0" fill="#fff" fill-opacity=".392"/><path d="M29.105 20.605a7.257 7.257 0 0 1-7.273 7.125H7.277a.557.557 0 0 1-.18-.027c-.156.02-.32.027-.484.027a3.959 3.959 0 0 1-3.965-3.816l-.003.152a3.962 3.962 0 0 0 4.453 3.938.56.56 0 0 0 .18.031h14.554a7.261 7.261 0 0 0 7.273-7.277v-.153zm0 0" fill-opacity=".235"/><path d="M21.832 13.48a7.269 7.269 0 0 0-6.578 4.145 5.388 5.388 0 0 0-1.363-.176 5.284 5.284 0 0 0-4.946 3.399 3.96 3.96 0 0 0-2.332-.754 3.965 3.965 0 0 0-3.968 3.972 3.962 3.962 0 0 0 4.453 3.938.56.56 0 0 0 .18.031h14.554a7.261 7.261 0 0 0 7.273-7.277 7.259 7.259 0 0 0-7.273-7.278zm0 0" fill="none" stroke-width=".18754706" stroke-linecap="round" stroke="#212121"/><path d="M17.55 2.855c-1.597 0-3 .801-3.831 2.024a4.567 4.567 0 0 0-2.453-.703c-2.043 0-3.746 1.304-4.188 3.066a2.645 2.645 0 0 0-1.433-.418A2.642 2.642 0 0 0 2.996 9.47c0 .054.004.11.008.164a2.641 2.641 0 0 1 2.64-2.48c.528 0 1.02.156 1.434.421.442-1.761 2.145-3.066 4.188-3.066.914 0 1.757.262 2.453.703a4.623 4.623 0 0 1 3.832-2.027 4.62 4.62 0 0 1 4.629 4.464c0-.054.004-.109.004-.164a4.62 4.62 0 0 0-4.633-4.629zm-9.57 8.188a.5.5 0 0 1-.043.078h.122c-.028-.023-.051-.05-.079-.078zm0 0" fill="#fff" fill-opacity=".392"/><path d="M22.023 7.34a4.618 4.618 0 0 1-4.628 4.488H5.488a2.646 2.646 0 0 1-2.644-2.504c0 .047-.004.098-.004.145a2.646 2.646 0 0 0 2.648 2.648h11.907a4.623 4.623 0 0 0 4.632-4.633c0-.046-.004-.097-.004-.144zM7.824 10.426c-.011.023-.027.05-.043.078h.121c-.027-.027-.05-.055-.078-.078zm0 0" fill-opacity=".235"/><path d="M17.395 2.855c-1.598 0-3 .801-3.832 2.024a4.567 4.567 0 0 0-2.454-.703c-2.043 0-3.746 1.304-4.187 3.066a2.645 2.645 0 0 0-1.434-.418A2.642 2.642 0 0 0 2.84 9.47a2.646 2.646 0 0 0 2.648 2.648h11.907a4.623 4.623 0 0 0 4.632-4.633 4.62 4.62 0 0 0-4.632-4.629zm-9.57 7.856c.027.027.05.055.077.082h-.12a.827.827 0 0 0 .042-.082zm0 0" fill="none" stroke-width=".18752999999999997" stroke-linecap="square" stroke-linejoin="round" stroke="#212121"/></svg>
